src/img/logo-blue.svg

<svg width="173" height="43" viewBox="0 0 173 43" fill="none" xmlns="http://www.w3.org/2000/svg">
<path d="M70.5477 26.1149H65.0522L56.776 14.3939V26.1149H51.9351V2.99121H56.776V14.1897L64.9587 2.99121H70.1123L61.7894 14.0949L70.5477 26.1149Z" fill="#305893"/>
<path d="M88.9118 17.2417C88.9118 20.1205 88.1622 22.3717 86.663 23.9954C85.1639 25.6191 83.0773 26.4316 80.4018 26.4316C78.7258 26.4316 77.2471 26.0601 75.9671 25.3171C74.6871 24.5741 73.7023 23.5055 73.0155 22.1142C72.3287 20.7229 71.9854 19.0992 71.9854 17.2432C71.9854 14.354 72.7291 12.1087 74.2181 10.5057C75.707 8.90279 77.7994 8.10205 80.4953 8.10205C82.1713 8.10205 83.6501 8.4706 84.9301 9.20917C86.2101 9.94774 87.1949 11.0075 87.8817 12.3884C88.5684 13.7679 88.9118 15.3856 88.9118 17.2417ZM76.8409 17.2417C76.8409 18.9926 77.1244 20.3159 77.6913 21.2113C78.2583 22.1083 79.1832 22.5552 80.4632 22.5552C81.733 22.5552 82.6462 22.1097 83.2029 21.2187C83.7596 20.3277 84.0387 19.0015 84.0387 17.2402C84.0387 15.4892 83.7582 14.1764 83.1956 13.3016C82.6331 12.4269 81.7125 11.9888 80.431 11.9888C79.1613 11.9888 78.2451 12.4239 77.6825 13.2942C77.1214 14.166 76.8409 15.4818 76.8409 17.2417Z" fill="#305893"/>
<path d="M114.848 26.115H110.398V12.1812L110.148 13.1626C109.585 15.3872 109.081 17.07 108.632 18.2082L105.542 26.115H102.154L99.0149 18.1431C98.5677 16.9827 98.0885 15.3546 97.5785 13.2558L97.2819 12.1798V26.115H92.8472V8.43214H99.405L102.403 15.9762C102.716 16.7888 103.004 17.7213 103.27 18.7766C103.536 19.8304 103.716 20.7333 103.809 21.4807C104.152 19.8985 104.42 18.7633 104.613 18.0721C104.806 17.3809 105.016 16.7459 105.245 16.1657C105.475 15.5855 106.511 13.0071 108.353 8.43066H114.85V26.115H114.848Z" fill="#305893"/>
<path d="M129.026 26.1149H124.187V7.07185H117.987V2.99121H135.226V7.07185H129.026V26.1149Z" fill="#305893"/>
<path d="M145.172 26.4317C142.361 26.4317 140.165 25.6457 138.582 24.0754C137 22.505 136.209 20.2789 136.209 17.4001C136.209 14.4369 136.94 12.1457 138.403 10.528C139.865 8.90872 141.888 8.10059 144.47 8.10059C146.936 8.10059 148.858 8.81252 150.231 10.2364C151.605 11.6602 152.293 13.6273 152.293 16.1361V18.4776H141.034C141.087 19.8482 141.487 20.9183 142.237 21.6879C142.986 22.4576 144.037 22.8424 145.392 22.8424C146.442 22.8424 147.437 22.7314 148.374 22.5109C149.311 22.2889 150.29 21.9366 151.309 21.4511V25.184C150.477 25.6058 149.587 25.9196 148.64 26.1253C147.692 26.3296 146.536 26.4317 145.172 26.4317ZM144.502 11.5315C143.492 11.5315 142.7 11.8556 142.129 12.5039C141.556 13.1522 141.229 14.0728 141.145 15.2643H147.829C147.808 14.0728 147.502 13.1522 146.908 12.5039C146.312 11.8571 145.511 11.5315 144.502 11.5315Z" fill="#305893"/>
<path d="M159.742 17.0834L154.121 8.43066H159.524L162.913 14.061L166.332 8.43066H171.736L166.052 17.0834L172.002 26.115H166.584L162.914 20.0569L159.229 26.115H153.827L159.742 17.0834Z" fill="#305893"/>
<path d="M39.8512 26.8431C39.1922 22.0949 37.0048 17.8455 33.8063 14.6218C32.3261 13.1299 30.6282 11.8585 28.7681 10.8579C31.9856 13.2231 34.078 17.0625 34.078 21.3977C34.078 21.457 34.0766 21.5147 34.0766 21.5724C34.0444 24.0486 33.3299 26.3591 32.1127 28.3172C31.0665 30.4989 29.6667 32.4749 27.9893 34.1681C24.8287 37.3577 20.6818 39.5424 16.0513 40.2158C15.0577 40.3609 14.0422 40.4364 13.0091 40.4364C12.3282 40.4364 11.6561 40.4023 10.9912 40.3387C13.7792 41.8957 16.95 42.8356 20.3238 42.9792C20.6234 42.9925 20.9229 42.9999 21.2254 42.9999C29.3672 42.9999 36.4364 38.3568 39.9959 31.5409C40.0382 30.9859 40.0602 30.4264 40.0602 29.8595C40.0602 28.8353 39.9886 27.8288 39.8512 26.8431Z" fill="url(#paint0_linear)"/>
<path d="M21.2268 34.4124C20.7548 34.4124 20.2901 34.3858 19.8313 34.3354C18.4213 34.1815 17.0813 33.7967 15.8452 33.218C13.2501 32.2041 10.902 30.6884 8.91474 28.7895C5.49701 25.5214 3.15179 21.1166 2.46649 16.1716C2.32914 15.1858 2.25754 14.1779 2.25754 13.1537C2.25754 12.6815 2.27362 12.2123 2.3043 11.7476C1.06813 14.2031 0.284933 16.9309 0.0642925 19.8186C0.0219179 20.3736 0 20.9331 0 21.5C0 29.6154 4.43911 36.6784 10.9911 40.3387C11.6559 40.4024 12.3281 40.4364 13.009 40.4364C14.0421 40.4364 15.0576 40.3595 16.0512 40.2159C20.6803 39.5424 24.8286 37.3578 27.9892 34.1682C29.6666 32.4749 31.0664 30.499 32.1126 28.3173C29.8376 31.9791 25.8134 34.4124 21.2268 34.4124Z" fill="url(#paint1_linear)"/>
<path d="M30.4176 2.11496C30.118 2.10164 29.8185 2.09424 29.516 2.09424C28.483 2.09424 27.4674 2.1712 26.4738 2.31477C21.5803 3.02671 17.2259 5.42892 14.0054 8.91901C12.4084 10.6493 11.0918 12.6474 10.126 14.8394C12.2096 11.2265 15.9634 8.72216 20.3149 8.41281C20.6159 8.39061 20.9213 8.38025 21.2281 8.38025C24.0453 8.38025 26.6506 9.2994 28.7679 10.8565C30.6295 11.857 32.3259 13.1284 33.8061 14.6204C37.0046 17.8441 39.1921 22.0949 39.8511 26.8416C39.9884 27.8274 40.06 28.8353 40.06 29.8596C40.06 30.425 40.0381 30.9859 39.9957 31.541C41.3575 28.9345 42.205 26.0098 42.4038 22.906C42.433 22.4413 42.4505 21.9721 42.4505 21.4999C42.4505 12.9612 37.5365 5.58581 30.4176 2.11496Z" fill="url(#paint2_linear)"/>
<path d="M23.2432 0.0976869C22.5784 0.0340424 21.9062 0 21.2253 0C12.9681 0 5.81411 4.77482 2.30433 11.7476C2.2751 12.2123 2.25757 12.6815 2.25757 13.1537C2.25757 14.1779 2.33063 15.1859 2.46652 16.1716C3.15182 21.1167 5.49849 25.5214 8.91476 28.7895C10.902 30.69 13.2501 32.2041 15.8452 33.218C11.4996 31.1858 8.46618 26.7677 8.37997 21.6214C8.37851 21.5459 8.37705 21.4704 8.37705 21.3949C8.37705 19.0045 9.01413 16.7637 10.1246 14.838C11.0905 12.646 12.4085 10.6479 14.0041 8.91763C17.2246 5.42754 21.5789 3.02533 26.4725 2.3134C27.4661 2.16835 28.4816 2.09287 29.5147 2.09287C29.8171 2.09287 30.1167 2.10027 30.4162 2.11359C28.2113 1.04051 25.793 0.340424 23.2432 0.0976869Z" fill="url(#paint3_linear)"/>
<path d="M52.2241 39.6561V32.918H57.4696V39.6561H56.7187V33.6101H52.9735V39.6561H52.2241Z" fill="#305893"/>
<path d="M59.2278 41.1972V34.68H59.9602V35.6817C60.4547 34.9444 61.0812 34.5742 61.8413 34.5742C62.4678 34.5742 63.016 34.8106 63.4859 35.2819C63.9542 35.7532 64.1892 36.3847 64.1892 37.1733C64.1892 37.9495 63.9542 38.5763 63.4859 39.0507C63.0175 39.5251 62.4693 39.7631 61.8413 39.7631C61.0689 39.7631 60.4409 39.41 59.9602 38.7039V41.1972H59.2278ZM61.7092 39.0974C62.2037 39.0974 62.6152 38.9232 62.9454 38.5732C63.274 38.2232 63.4398 37.7535 63.4398 37.1624C63.4398 36.5916 63.2724 36.1281 62.9361 35.7719C62.5999 35.4157 62.1914 35.2368 61.7108 35.2368C61.2363 35.2368 60.8202 35.4204 60.4654 35.7859C60.1107 36.1514 59.9326 36.6134 59.9326 37.1718C59.9326 37.7302 60.1092 38.1906 60.4654 38.553C60.8186 38.917 61.2332 39.0974 61.7092 39.0974Z" fill="#305893"/>
<path d="M69.6158 39.0072C69.1214 39.5174 68.5102 39.7724 67.7808 39.7724C67.0514 39.7724 66.4449 39.5189 65.9612 39.0118C65.4759 38.5048 65.2349 37.8919 65.2349 37.1733C65.2349 36.4609 65.4806 35.8497 65.9719 35.3395C66.4633 34.8293 67.0729 34.5742 67.8008 34.5742C68.5286 34.5742 69.1382 34.8278 69.625 35.3348C70.1133 35.8419 70.3575 36.4547 70.3575 37.1733C70.3575 37.8857 70.1103 38.497 69.6158 39.0072ZM67.8008 39.1083C68.3259 39.1083 68.759 38.9216 69.0983 38.5499C69.4377 38.1781 69.6066 37.7193 69.6066 37.1733C69.6066 36.6336 69.43 36.1747 69.0784 35.7968C68.7267 35.4188 68.2937 35.2291 67.7808 35.2291C67.2541 35.2291 66.8242 35.4173 66.4879 35.7921C66.1516 36.167 65.9842 36.6274 65.9842 37.1733C65.9842 37.7131 66.1577 38.1704 66.5063 38.5452C66.8564 38.9201 67.2879 39.1083 67.8008 39.1083Z" fill="#305893"/>
<path d="M71.6777 39.6561V34.6787H72.3718L74.2068 37.2965L76.0418 34.6787H76.7451V39.6561H76.0019V35.8624L74.1868 38.3853L72.3902 35.8624V39.6561H71.6777Z" fill="#305893"/>
<path d="M78.3789 39.6561V34.6787H79.1114V36.5468H80.4227C80.9924 36.5468 81.4592 36.6697 81.8201 36.917C82.1809 37.1643 82.3621 37.5376 82.3621 38.0384C82.3621 38.533 82.1947 38.925 81.8585 39.2174C81.5222 39.5099 81.0723 39.6561 80.5087 39.6561H78.3789ZM79.1098 39.0028H80.4396C80.8128 39.0028 81.103 38.9219 81.3087 38.7617C81.5145 38.6015 81.6174 38.3666 81.6174 38.0586C81.6174 37.7756 81.5114 37.5594 81.2995 37.4085C81.0876 37.2576 80.7913 37.1829 80.4104 37.1829H79.1083V39.0028H79.1098ZM83.2435 39.6561V34.6787H83.976V39.6561H83.2435Z" fill="#305893"/>
<path d="M85.6099 39.6561V34.6787H86.3423V39.0012H88.7378V34.6787H89.4702V39.0012H91.8657V34.6787H92.6074V39.6561H85.6099Z" fill="#305893"/>
<path d="M94.0032 39.7337C93.8128 39.7337 93.6163 39.7073 93.4136 39.656L93.4996 39.0214C93.6454 39.0665 93.7621 39.0882 93.8512 39.0882C93.9909 39.0882 94.1046 39.0711 94.1936 39.0354C94.2827 38.9996 94.3794 38.9078 94.4839 38.7569C94.5883 38.6061 94.6697 38.393 94.7265 38.1161C94.7833 37.8408 94.8324 37.4488 94.8739 36.9418C94.9153 36.4347 94.9353 35.8187 94.9353 35.0939V34.6802H98.4133V39.6575H97.6809V35.335H95.6278V35.4501C95.6278 36.2076 95.5987 36.8531 95.5418 37.3851C95.485 37.9186 95.4129 38.3354 95.3284 38.6372C95.2424 38.9389 95.1242 39.1738 94.9722 39.3402C94.8201 39.5067 94.6727 39.614 94.5299 39.6622C94.3871 39.7104 94.2121 39.7337 94.0032 39.7337Z" fill="#305893"/>
<path d="M102.195 39.7724C101.504 39.7724 100.924 39.5298 100.451 39.0461C99.9796 38.5623 99.7432 37.937 99.7432 37.1733C99.7432 36.4485 99.9674 35.8341 100.417 35.3302C100.867 34.8262 101.428 34.5742 102.1 34.5742C102.804 34.5742 103.361 34.8246 103.772 35.3255C104.184 35.8263 104.39 36.4547 104.39 37.2122C104.39 37.3087 104.387 37.3958 104.381 37.472H100.483C100.534 37.979 100.723 38.3819 101.048 38.6805C101.374 38.9792 101.762 39.1285 102.212 39.1285C102.802 39.1285 103.318 38.8936 103.762 38.4254L104.218 38.8392C103.668 39.4614 102.994 39.7724 102.195 39.7724ZM100.485 36.8747H103.65C103.605 36.3941 103.448 35.9943 103.18 35.6755C102.911 35.3581 102.544 35.1995 102.082 35.1995C101.664 35.1995 101.306 35.3566 101.008 35.6708C100.709 35.985 100.536 36.3863 100.485 36.8747Z" fill="#305893"/>
<path d="M105.674 39.6561V34.6787H106.406V36.8252H109.238V34.6787H109.97V39.6561H109.238V37.48H106.406V39.6561H105.674Z" fill="#305893"/>
<path d="M111.604 39.6561V34.6787H112.336V36.8252H115.168V34.6787H115.901V39.6561H115.168V37.48H112.336V39.6561H111.604Z" fill="#305893"/>
<path d="M117.534 39.6561V34.6787H118.267V36.5468H119.578C120.148 36.5468 120.614 36.6697 120.975 36.917C121.336 37.1643 121.517 37.5376 121.517 38.0384C121.517 38.533 121.35 38.925 121.014 39.2174C120.677 39.5099 120.228 39.6561 119.664 39.6561H117.534ZM118.267 39.0028H119.596C119.97 39.0028 120.26 38.9219 120.466 38.7617C120.671 38.6015 120.774 38.3666 120.774 38.0586C120.774 37.7756 120.668 37.5594 120.456 37.4085C120.244 37.2576 119.948 37.1829 119.567 37.1829H118.265V39.0028H118.267ZM122.4 39.6561V34.6787H123.133V39.6561H122.4Z" fill="#305893"/>
<path d="M124.767 39.6559V34.6785H125.499V38.6153L128.417 34.6785H129.129V39.6559H128.397V35.7191L125.47 39.6559H124.767ZM127.813 33.6395C127.569 33.8573 127.273 33.9661 126.924 33.9661C126.575 33.9661 126.279 33.8573 126.035 33.6395C125.791 33.4218 125.64 33.1387 125.584 32.7918L126.087 32.686C126.213 33.1356 126.493 33.3595 126.924 33.3595C127.356 33.3595 127.633 33.1356 127.761 32.686L128.265 32.7918C128.206 33.1387 128.056 33.4218 127.813 33.6395Z" fill="#305893"/>
<path d="M133.614 39.6561V34.6787H134.347V37.5469L137.037 34.6787H137.94L135.885 36.8361L137.995 39.6561H137.131L135.382 37.3758L134.345 38.4537V39.6576H133.614V39.6561Z" fill="#305893"/>
<path d="M138.764 39.7337C138.574 39.7337 138.377 39.7073 138.175 39.656L138.261 39.0214C138.407 39.0665 138.523 39.0882 138.612 39.0882C138.752 39.0882 138.866 39.0711 138.955 39.0354C139.044 38.9996 139.141 38.9078 139.245 38.7569C139.349 38.6061 139.431 38.393 139.488 38.1161C139.545 37.8408 139.594 37.4488 139.635 36.9418C139.677 36.4347 139.697 35.8187 139.697 35.0939V34.6802H143.175V39.6575H142.442V35.335H140.389V35.4501C140.389 36.2076 140.36 36.8531 140.303 37.3851C140.246 37.9186 140.174 38.3354 140.09 38.6372C140.004 38.9389 139.885 39.1738 139.733 39.3402C139.581 39.5067 139.434 39.614 139.291 39.6622C139.15 39.7104 138.975 39.7337 138.764 39.7337Z" fill="#305893"/>
<path d="M144.81 39.6561V34.6787H145.543V38.6155L148.46 34.6787H149.173V39.6561H148.44V35.7193L145.513 39.6561H144.81Z" fill="#305893"/>
<path d="M150.807 39.6561V34.6787H151.539V36.8252H154.371V34.6787H155.103V39.6561H154.371V37.48H151.539V39.6561H150.807Z" fill="#305893"/>
<path d="M156.737 39.6561V34.6787H157.469V38.6155L160.387 34.6787H161.099V39.6561H160.367V35.7193L157.44 39.6561H156.737Z" fill="#305893"/>
<path d="M162.734 39.6561V34.6787H163.467V36.8252H166.298V34.6787H167.031V39.6561H166.298V37.48H163.467V39.6561H162.734Z" fill="#305893"/>
<path d="M168.665 39.6561V34.6787H172V35.3335H169.396V39.6561H168.665Z" fill="#305893"/>
<defs>
<linearGradient id="paint0_linear" x1="18.6435" y1="41.1707" x2="35.7089" y2="20.4067" gradientUnits="userSpaceOnUse">
<stop offset="0.0284145" stop-color="#A1D4C5"/>
<stop offset="0.3818" stop-color="#62BDA4"/>
<stop offset="0.5727" stop-color="#4CA98C"/>
<stop offset="0.8099" stop-color="#309676"/>
<stop offset="0.9481" stop-color="#238F6E"/>
</linearGradient>
<linearGradient id="paint1_linear" x1="0" y1="26.092" x2="32.112" y2="26.092" gradientUnits="userSpaceOnUse">
<stop offset="0.0141857" stop-color="#7698CC"/>
<stop offset="0.3819" stop-color="#4B6DB1"/>
<stop offset="0.9602" stop-color="#305893"/>
</linearGradient>
<linearGradient id="paint2_linear" x1="41.7544" y1="21.2757" x2="16.6833" y2="6.66915" gradientUnits="userSpaceOnUse">
<stop offset="0.0141857" stop-color="#7698CC"/>
<stop offset="0.3819" stop-color="#4B6DB1"/>
<stop offset="0.9602" stop-color="#305893"/>
</linearGradient>
<linearGradient id="paint3_linear" x1="27.8612" y1="2.84772" x2="7.61434" y2="22.6752" gradientUnits="userSpaceOnUse">
<stop offset="0.035568" stop-color="#F2B065"/>
<stop offset="0.0927934" stop-color="#F2A951"/>
<stop offset="0.1558" stop-color="#F2A341"/>
<stop offset="0.2208" stop-color="#F2A037"/>
<stop offset="0.29" stop-color="#F29E34"/>
<stop offset="0.9366" stop-color="#E1821E"/>
</linearGradient>
</defs>
</svg>

<svg width="173" height="43" viewBox="0 0 173 43" xmlns="http://www.w3.org/2000/svg" fill="none"><path d="M70.548 26.115h-5.496l-8.276-11.721v11.721h-4.841v-23.124h4.841v11.198l8.183-11.198h5.154l-8.323 11.104 8.758 12.02zM88.912 17.242c0 2.879-.75 5.13-2.249 6.754-1.499 1.624-3.586 2.436-6.261 2.436-1.676 0-3.155-.372-4.435-1.114-1.28-.743-2.265-1.812-2.952-3.203-.687-1.391-1.03-3.015-1.03-4.871 0-2.889.744-5.135 2.233-6.738 1.489-1.603 3.581-2.404 6.277-2.404 1.676 0 3.155.369 4.435 1.107 1.28.739 2.265 1.798 2.952 3.179.687 1.379 1.03 2.997 1.03 4.853zm-12.071 0c0 1.751.283 3.074.85 3.97.567.897 1.492 1.344 2.772 1.344 1.27 0 2.183-.445 2.74-1.337.557-.891.836-2.217.836-3.978 0-1.751-.281-3.064-.843-3.939-.563-.875-1.483-1.313-2.765-1.313-1.27 0-2.186.435-2.748 1.305-.561.872-.842 2.188-.842 3.948zM114.848 26.115h-4.45v-13.934l-.25.981c-.563 2.225-1.067 3.907-1.516 5.046l-3.09 7.907h-3.388l-3.139-7.972c-.447-1.16-.926-2.789-1.436-4.887l-.297-1.076v13.935h-4.435v-17.683h6.558l2.998 7.544c.313.813.601 1.745.867 2.8.266 1.054.446 1.957.539 2.704.343-1.582.611-2.717.804-3.409.193-.691.403-1.326.632-1.906.23-.58 1.266-3.159 3.108-7.735h6.497v17.684h-.002zM129.026 26.115h-4.839v-19.043h-6.2v-4.081h17.239v4.081h-6.2v19.043zM145.172 26.432c-2.811 0-5.007-.786-6.59-2.356-1.582-1.57-2.373-3.796-2.373-6.675 0-2.963.731-5.254 2.194-6.872 1.462-1.619 3.485-2.427 6.067-2.427 2.466 0 4.388.712 5.761 2.136 1.374 1.424 2.062 3.391 2.062 5.9v2.341h-11.259c.053 1.371.453 2.441 1.203 3.21.749.77 1.8 1.155 3.155 1.155 1.05 0 2.045-.111 2.982-.332.937-.222 1.916-.574 2.935-1.06v3.733c-.832.422-1.722.736-2.669.941-.948.204-2.104.306-3.468.306zm-.67-14.9c-1.01 0-1.802.324-2.373.972-.573.648-.9 1.569-.984 2.76h6.684c-.021-1.191-.327-2.112-.921-2.76-.596-.647-1.397-.972-2.406-.972zM159.742 17.083l-5.621-8.653h5.403l3.389 5.63 3.419-5.63h5.404l-5.684 8.653 5.95 9.032h-5.418l-3.67-6.058-3.685 6.058h-5.402l5.915-9.032z" fill="#305893"/><path d="M39.851 26.843c-.659-4.748-2.846-8.998-6.045-12.221-1.48-1.492-3.178-2.763-5.038-3.764 3.218 2.365 5.31 6.205 5.31 10.54l-.001.175c-.032 2.476-.747 4.787-1.964 6.745-1.046 2.182-2.446 4.158-4.123 5.851-3.161 3.19-7.308 5.374-11.938 6.048-.994.145-2.009.221-3.042.221-.681 0-1.353-.034-2.018-.098 2.788 1.557 5.959 2.497 9.333 2.64.3.013.599.021.902.021 8.142 0 15.211-4.643 18.77-11.459.042-.555.064-1.114.064-1.681 0-1.024-.072-2.031-.209-3.016z" fill="url(#a)"/><path d="M21.227 34.412c-.472 0-.937-.027-1.396-.077-1.41-.154-2.75-.539-3.986-1.117-2.595-1.014-4.943-2.53-6.93-4.429-3.418-3.268-5.763-7.673-6.448-12.618-.137-.986-.209-1.994-.209-3.018 0-.472.016-.941.047-1.406-1.236 2.455-2.019 5.183-2.24 8.071-.042.555-.064 1.114-.064 1.681 0 8.115 4.439 15.178 10.991 18.839.665.064 1.337.098 2.018.098 1.033 0 2.049-.077 3.042-.221 4.629-.673 8.777-2.858 11.938-6.048 1.677-1.693 3.077-3.669 4.123-5.851-2.275 3.662-6.299 6.095-10.886 6.095z" fill="url(#b)"/><path d="M30.418 2.115c-.3-.013-.599-.021-.902-.021-1.033 0-2.049.077-3.042.221-4.893.712-9.248 3.114-12.468 6.604-1.597 1.73-2.914 3.728-3.879 5.92 2.084-3.613 5.837-6.117 10.189-6.427.301-.022.606-.033.913-.033 2.817 0 5.422.919 7.54 2.476 1.862 1 3.558 2.272 5.038 3.764 3.199 3.224 5.386 7.474 6.045 12.221.137.986.209 1.994.209 3.018 0 .565-.022 1.126-.064 1.681 1.362-2.607 2.209-5.531 2.408-8.635.029-.465.047-.934.047-1.406 0-8.539-4.914-15.914-12.033-19.385z" fill="url(#c)"/><path d="M23.243.098c-.665-.064-1.337-.098-2.018-.098-8.257 0-15.411 4.775-18.921 11.748-.029.465-.047.934-.047 1.406 0 1.024.073 2.032.209 3.018.685 4.945 3.032 9.35 6.448 12.618 1.987 1.901 4.335 3.415 6.93 4.429-4.346-2.032-7.379-6.45-7.465-11.597l-.003-.227c0-2.39.637-4.631 1.748-6.557.966-2.192 2.284-4.19 3.88-5.92 3.22-3.49 7.575-5.892 12.468-6.604.994-.145 2.009-.221 3.042-.221.302 0 .602.007.901.021-2.205-1.073-4.623-1.773-7.173-2.016z" fill="url(#d)"/><path d="M52.224 39.656v-6.738h5.245v6.738h-.751v-6.046h-3.745v6.046h-.749zM59.228 41.197v-6.517h.732v1.002c.495-.737 1.121-1.108 1.881-1.108.627 0 1.175.236 1.645.708.468.471.703 1.103.703 1.891 0 .776-.235 1.403-.703 1.877-.468.474-1.017.712-1.645.712-.772 0-1.4-.353-1.881-1.059v2.493h-.732zm2.481-2.1c.494 0 .906-.174 1.236-.524.329-.35.494-.82.494-1.411 0-.571-.167-1.034-.504-1.39-.336-.356-.745-.535-1.225-.535-.474 0-.891.184-1.245.549-.355.366-.533.828-.533 1.386 0 .558.177 1.019.533 1.381.353.364.768.544 1.244.544zM69.616 39.007c-.494.51-1.106.765-1.835.765-.729 0-1.336-.253-1.82-.761-.485-.507-.726-1.12-.726-1.839 0-.712.246-1.324.737-1.834s1.101-.765 1.829-.765 1.337.254 1.824.761c.488.507.733 1.12.733 1.838 0 .712-.247 1.324-.742 1.834zm-1.815.101c.525 0 .958-.187 1.297-.558.339-.372.508-.831.508-1.377 0-.54-.177-.999-.528-1.377-.352-.378-.785-.568-1.298-.568-.527 0-.957.188-1.293.563-.336.375-.504.835-.504 1.381 0 .54.174.997.522 1.372.35.375.782.563 1.294.563zM71.678 39.656v-4.977h.694l1.835 2.618 1.835-2.618h.703v4.977h-.743v-3.794l-1.815 2.523-1.797-2.523v3.794h-.712zM78.379 39.656v-4.977h.733v1.868h1.311c.57 0 1.036.123 1.397.37s.542.621.542 1.121c0 .495-.167.887-.504 1.179-.336.293-.786.439-1.35.439h-2.13zm.731-.653h1.33c.373 0 .663-.081.869-.241.206-.16.309-.395.309-.703 0-.283-.106-.499-.318-.65-.212-.151-.508-.226-.889-.226h-1.302v1.82h.002zm4.134.653v-4.977h.733v4.977h-.733zM85.61 39.656v-4.977h.732v4.322h2.395v-4.322h.732v4.322h2.395v-4.322h.742v4.977h-6.998zM94.003 39.734c-.19 0-.387-.026-.59-.078l.086-.635c.146.045.263.067.352.067.14 0 .253-.017.342-.053.089-.036.186-.128.29-.279.104-.151.186-.364.243-.641.057-.275.106-.667.147-1.174.041-.507.061-1.123.061-1.848v-.414h3.478v4.977h-.732v-4.322h-2.053v.115c0 .758-.029 1.403-.086 1.935-.057.533-.129.95-.213 1.252-.086.302-.204.537-.356.703-.152.166-.299.274-.442.322-.143.048-.318.072-.527.072zM102.195 39.772c-.691 0-1.271-.243-1.744-.726-.471-.484-.708-1.109-.708-1.873 0-.725.224-1.339.674-1.843.45-.504 1.011-.756 1.683-.756.704 0 1.261.25 1.672.751.412.501.618 1.129.618 1.887l-.009.26h-3.898c.051.507.24.91.565 1.209.326.299.714.448 1.164.448.59 0 1.106-.235 1.55-.703l.456.414c-.55.622-1.224.933-2.023.933zm-1.71-2.898h3.165c-.045-.481-.202-.88-.47-1.199-.269-.317-.636-.476-1.098-.476-.418 0-.776.157-1.074.471-.299.314-.472.715-.523 1.204zM105.674 39.656v-4.977h.732v2.147h2.832v-2.147h.732v4.977h-.732v-2.176h-2.832v2.176h-.732zM111.604 39.656v-4.977h.732v2.147h2.832v-2.147h.733v4.977h-.733v-2.176h-2.832v2.176h-.732zM117.534 39.656v-4.977h.733v1.868h1.311c.57 0 1.036.123 1.397.37s.542.621.542 1.121c0 .495-.167.887-.503 1.179-.337.293-.786.439-1.35.439h-2.13zm.733-.653h1.329c.374 0 .664-.081.87-.241.205-.16.308-.395.308-.703 0-.283-.106-.499-.318-.65-.212-.151-.508-.226-.889-.226h-1.302v1.82h.002zm4.133.653v-4.977h.733v4.977h-.733zM124.767 39.656v-4.977h.732v3.937l2.918-3.937h.712v4.977h-.732v-3.937l-2.927 3.937h-.703zm3.046-6.016c-.244.218-.54.327-.889.327s-.645-.109-.889-.327c-.244-.218-.395-.501-.451-.848l.503-.106c.126.45.406.673.837.673.432 0 .709-.224.837-.673l.504.106c-.059.347-.209.63-.452.848zM133.614 39.656v-4.977h.733v2.868l2.69-2.868h.903l-2.055 2.157 2.11 2.82h-.864l-1.749-2.28-1.037 1.078v1.204h-.731v-.002zM138.764 39.734c-.19 0-.387-.026-.589-.078l.086-.635c.146.045.262.067.351.067.14 0 .254-.017.343-.053.089-.036.186-.128.29-.279.104-.151.186-.364.243-.641.057-.275.106-.667.147-1.174.042-.507.062-1.123.062-1.848v-.414h3.478v4.977h-.733v-4.322h-2.053v.115c0 .758-.029 1.403-.086 1.935-.057.533-.129.95-.213 1.252-.086.302-.205.537-.357.703-.152.166-.299.274-.442.322-.141.048-.316.072-.527.072zM144.81 39.656v-4.977h.733v3.937l2.917-3.937h.713v4.977h-.733v-3.937l-2.927 3.937h-.703zM150.807 39.656v-4.977h.732v2.147h2.832v-2.147h.732v4.977h-.732v-2.176h-2.832v2.176h-.732zM156.737 39.656v-4.977h.732v3.937l2.918-3.937h.712v4.977h-.732v-3.937l-2.927 3.937h-.703zM162.734 39.656v-4.977h.733v2.147h2.831v-2.147h.733v4.977h-.733v-2.176h-2.831v2.176h-.733zM168.665 39.656v-4.977h3.335v.655h-2.604v4.323h-.731z" fill="#305893"/><defs><linearGradient id="a" x1="18.643" y1="41.171" x2="35.709" y2="20.407" gradientUnits="userSpaceOnUse"><stop offset=".028" stop-color="#A1D4C5"/><stop offset=".382" stop-color="#62BDA4"/><stop offset=".573" stop-color="#4CA98C"/><stop offset=".81" stop-color="#309676"/><stop offset=".948" stop-color="#238F6E"/></linearGradient><linearGradient id="b" y1="26.092" x2="32.112" y2="26.092" gradientUnits="userSpaceOnUse"><stop offset=".014" stop-color="#7698CC"/><stop offset=".382" stop-color="#4B6DB1"/><stop offset=".96" stop-color="#305893"/></linearGradient><linearGradient id="c" x1="41.754" y1="21.276" x2="16.683" y2="6.669" gradientUnits="userSpaceOnUse"><stop offset=".014" stop-color="#7698CC"/><stop offset=".382" stop-color="#4B6DB1"/><stop offset=".96" stop-color="#305893"/></linearGradient><linearGradient id="d" x1="27.861" y1="2.848" x2="7.614" y2="22.675" gradientUnits="userSpaceOnUse"><stop offset=".036" stop-color="#F2B065"/><stop offset=".093" stop-color="#F2A951"/><stop offset=".156" stop-color="#F2A341"/><stop offset=".221" stop-color="#F2A037"/><stop offset=".29" stop-color="#F29E34"/><stop offset=".937" stop-color="#E1821E"/></linearGradient></defs></svg>
